packages/crayons-core/src/components/icon/icon-assets/icons/article-seo.svg

<?xml version="1.0" encoding="UTF-8"?>
<svg width="14px" height="14px" viewBox="0 0 14 14" version="1.1" xmlns="http://www.w3.org/2000/svg" xmlns:xlink="http://www.w3.org/1999/xlink">
    <!-- Generator: Sketch 52.6 (67491) - http://www.bohemiancoding.com/sketch -->
    <title>icon/article-seo</title>
    <desc>Created with Sketch.</desc>
    <g id="Icons-✅" stroke="none" stroke-width="1" fill="none" fill-rule="evenodd">
        <g id="Icons" transform="translate(-819.000000, -2653.000000)" fill="currentColor">
            <g id="icon/article-seo" transform="translate(819.000000, 2653.000000)">
                <g id="article-seo">
                    <path d="M6.72,11.37 L6.73,11.37 C5.49970948,11.3699876 4.50185565,10.3736076 4.50002489,9.1433184 C4.49819413,7.91302923 5.49307818,6.91368383 6.72336322,6.91000994 C7.95364825,6.90633606 8.954483,7.89972185 8.96,9.13 C8.96020569,9.47882456 8.87433423,9.82231042 8.71,10.13 L9.32,10.73 C9.51443407,10.9337769 9.57003003,11.2332194 9.4617011,11.4932088 C9.35337218,11.7531982 9.10160289,11.9245718 8.82,11.93 C8.63465043,11.9307911 8.4572544,11.8547643 8.33,11.72 L7.72,11.12 C7.41116782,11.2813485 7.06842767,11.3670335 6.72,11.37 Z M6.72,8.3 L6.73,8.3 C6.27160366,8.3 5.9,8.67160366 5.9,9.13 C5.9,9.58839634 6.27160366,9.96 6.73,9.96 C6.94773236,9.96120639 7.15678192,9.87470312 7.31,9.72 C7.55002392,9.48252529 7.62226826,9.12331668 7.4927158,8.81151245 C7.36316334,8.49970822 7.05763777,8.29746034 6.72,8.3 Z M11.3,8.8817842e-16 C12.7911688,1.33226763e-15 14,1.20883118 14,2.7 L14,11.6 C13.9945208,12.9232072 12.9232072,13.9945208 11.6,14 L2.4,14 C1.0767928,13.9945208 0.0054791892,12.9232072 8.8817842e-16,11.6 L8.8817842e-16,2.7 C1.11022302e-15,1.20883118 1.20883118,1.11022302e-15 2.7,8.8817842e-16 L11.3,8.8817842e-16 Z M1.4,2.7 L1.4,4.83 L12.6,4.83 L12.6,2.7 C12.6,1.98202983 12.0179702,1.4 11.3,1.4 L2.7,1.4 C2.35521856,1.4 2.02455848,1.53696389 1.78076118,1.78076118 C1.53696389,2.02455848 1.4,2.35521856 1.4,2.7 Z M12.6,11.6 L12.6,6.23 L1.4,6.23 L1.4,11.6 C1.4,12.1522847 1.84771525,12.6 2.4,12.6 L11.6,12.6 C12.1522847,12.6 12.6,12.1522847 12.6,11.6 Z M3,2.11 C3.55228475,2.11 4,2.55771525 4,3.11 C4,3.66228475 3.55228475,4.11 3,4.11 C2.44771525,4.11 2,3.66228475 2,3.11 C2,2.55771525 2.44771525,2.11 3,2.11 Z M5.58,2.11 C6.13228475,2.11 6.58,2.55771525 6.58,3.11 C6.58,3.66228475 6.13228475,4.11 5.58,4.11 C5.02771525,4.11 4.58,3.66228475 4.58,3.11 C4.58,2.55771525 5.02771525,2.11 5.58,2.11 Z M8.17,2.11 C8.72228475,2.11 9.17,2.55771525 9.17,3.11 C9.17,3.66228475 8.72228475,4.11 8.17,4.11 C7.61771525,4.11 7.17,3.66228475 7.17,3.11 C7.17,2.55771525 7.61771525,2.11 8.17,2.11 Z" id="Combined-Shape"></path>
                </g>
            </g>
        </g>
    </g>
</svg>

<svg viewBox="0 0 14 14"><path d="M6.72 11.37h.01a2.23 2.23 0 1 1 2.23-2.24c0 .349-.086.692-.25 1l.61.6a.71.71 0 0 1-.5 1.2.67.67 0 0 1-.49-.21l-.61-.6a2.2 2.2 0 0 1-1 .25zm0-3.07h.01a.83.83 0 0 0 0 1.66.83.83 0 1 0-.01-1.66zM11.3 0A2.7 2.7 0 0 1 14 2.7v8.9a2.41 2.41 0 0 1-2.4 2.4H2.4A2.41 2.41 0 0 1 0 11.6V2.7A2.7 2.7 0 0 1 2.7 0h8.6zM1.4 2.7v2.13h11.2V2.7a1.3 1.3 0 0 0-1.3-1.3H2.7a1.3 1.3 0 0 0-1.3 1.3zm11.2 8.9V6.23H1.4v5.37a1 1 0 0 0 1 1h9.2a1 1 0 0 0 1-1zM3 2.11a1 1 0 1 1 0 2 1 1 0 0 1 0-2zm2.58 0a1 1 0 1 1 0 2 1 1 0 0 1 0-2zm2.59 0a1 1 0 1 1 0 2 1 1 0 0 1 0-2z" fill="currentColor" fill-rule="evenodd"/></svg>
